papirus/32x32/apps/vym.svg

<?xml version="1.0" encoding="UTF-8" standalone="no"?>
<!-- Created with Inkscape (http://www.inkscape.org/) -->

<svg
   xmlns:dc="http://purl.org/dc/elements/1.1/"
   xmlns:cc="http://creativecommons.org/ns#"
   xmlns:rdf="http://www.w3.org/1999/02/22-rdf-syntax-ns#"
   xmlns:svg="http://www.w3.org/2000/svg"
   xmlns="http://www.w3.org/2000/svg"
   xmlns:sodipodi="http://sodipodi.sourceforge.net/DTD/sodipodi-0.dtd"
   xmlns:inkscape="http://www.inkscape.org/namespaces/inkscape"
   id="svg2817"
   height="32"
   width="32"
   version="1.0"
   inkscape:version="0.91 r13725"
   sodipodi:docname="vym32.svg">
  <defs
     id="defs18" />
  <sodipodi:namedview
     pagecolor="#ffffff"
     bordercolor="#666666"
     borderopacity="1"
     objecttolerance="10"
     gridtolerance="10"
     guidetolerance="10"
     inkscape:pageopacity="0"
     inkscape:pageshadow="2"
     inkscape:window-width="1600"
     inkscape:window-height="849"
     id="namedview16"
     showgrid="false"
     inkscape:zoom="1"
     inkscape:cx="15.068142"
     inkscape:cy="13.964761"
     inkscape:window-x="0"
     inkscape:window-y="0"
     inkscape:window-maximized="1"
     inkscape:current-layer="svg2817"
     inkscape:snap-grids="true"
     inkscape:snap-page="true">
    <inkscape:grid
       type="xygrid"
       id="grid4150" />
  </sodipodi:namedview>
  <metadata
     id="metadata57">
    <rdf:RDF>
      <cc:Work
         rdf:about="">
        <dc:format>image/svg+xml</dc:format>
        <dc:type
           rdf:resource="http://purl.org/dc/dcmitype/StillImage" />
        <dc:title></dc:title>
      </cc:Work>
    </rdf:RDF>
  </metadata>
  <g
     id="layer7"
     display="none"
     transform="translate(-52.273,-18.186)"
     style="display:none">
    <rect
       id="rect4169"
       display="inline"
       rx="9"
       ry="9"
       height="44"
       width="44"
       y="2"
       x="2"
       style="display:inline;fill:#abe1ad" />
  </g>
  <rect
     style="fill:#4d4d4d;fill-opacity:1"
     id="rect4203"
     ry="14"
     rx="14"
     transform="matrix(0,-1,-1,0,0,0)"
     height="28"
     width="28"
     y="-30"
     x="-30" />
  <path
     style="opacity:0.2;fill:#000000;fill-opacity:1"
     d="M 19 8 A 8 8 0 0 0 11 16 A 8 8 0 0 0 11.005859 16.15625 C 11.004359 16.20501 10.994181 16.25163 10.994141 16.300781 C 10.995541 16.427111 10.998139 16.55358 11.005859 16.679688 C 11.005662 16.704928 11.003906 16.728606 11.003906 16.753906 L 11.003906 18.246094 L 10.994141 18.800781 L 9.1679688 21.681641 C 8.7476958 22.482789 9.1451138 22.980316 10.046875 22.992188 L 11.003906 23.005859 L 11.003906 23.007812 L 11.003906 24.138672 L 11.003906 25.255859 C 11.003906 26.197095 11.882509 26.986328 12.828125 26.986328 L 15 27.013672 L 15 29.949219 C 15.331561 29.9725 15.662316 30 16 30 C 18.987462 30 21.745283 29.066728 24.013672 27.484375 L 24.013672 22.599609 C 24.013672 22.470347 24.006506 22.362335 24.003906 22.240234 A 8 8 0 0 0 27 16 A 8 8 0 0 0 19 8 z "
     id="path4211" />
  <path
     style="fill:#6084ff;fill-opacity:1"
     d="M 19 7 A 8 8 0 0 0 11 15 A 8 8 0 0 0 11.005859 15.15625 C 11.004313 15.205009 10.99418 15.251634 10.994141 15.300781 C 10.995541 15.427111 10.998189 15.553581 11.005859 15.679688 C 11.005662 15.704928 11.003906 15.728606 11.003906 15.753906 L 11.003906 17.246094 L 10.994141 17.800781 L 9.1679688 20.681641 C 8.7476958 21.482789 9.1451138 21.980317 10.046875 21.992188 L 11.003906 22.005859 L 11.003906 22.007812 L 11.003906 23.138672 L 11.003906 24.255859 C 11.003906 25.197095 11.882509 25.986328 12.828125 25.986328 L 15 26.013672 L 15 29.949219 C 15.331561 29.9725 15.662316 30 16 30 C 18.987462 30 21.745283 29.066728 24.013672 27.484375 L 24.013672 21.599609 C 24.013672 21.470347 24.006458 21.362335 24.003906 21.240234 A 8 8 0 0 0 27 15 A 8 8 0 0 0 19 7 z "
     id="path4171" />
  <g
     id="g4202"
     style="opacity:0.2;fill:#000000;fill-opacity:1"
     transform="translate(0,1)">
    <path
       style="opacity:1;fill:#000000;fill-opacity:1;stroke:none;stroke-width:4;stroke-linecap:round;stroke-linejoin:round;stroke-miterlimit:4;stroke-dasharray:none;stroke-opacity:1"
       d="M 19.5,10 A 4.5,4.5 0 0 0 15,14.5 4.5,4.5 0 0 0 19.5,19 4.5,4.5 0 0 0 24,14.5 4.5,4.5 0 0 0 19.5,10 Z m 0,2 A 2.4999998,2.4999998 0 0 1 22,14.5 2.4999998,2.4999998 0 0 1 19.5,17 2.4999998,2.4999998 0 0 1 17,14.5 2.4999998,2.4999998 0 0 1 19.5,12 Z"
       id="path4204"
       inkscape:connector-curvature="0" />
    <circle
       style="opacity:1;fill:#000000;fill-opacity:1;stroke:none;stroke-width:4;stroke-linecap:round;stroke-linejoin:round;stroke-miterlimit:4;stroke-dasharray:none;stroke-opacity:1"
       id="circle4206"
       cx="19.5"
       cy="14.5"
       r="1.5" />
  </g>
  <g
     id="g4198">
    <path
       id="path4195"
       d="M 19.5 10 A 4.5 4.5 0 0 0 15 14.5 A 4.5 4.5 0 0 0 19.5 19 A 4.5 4.5 0 0 0 24 14.5 A 4.5 4.5 0 0 0 19.5 10 z M 19.5 12 A 2.4999998 2.4999998 0 0 1 22 14.5 A 2.4999998 2.4999998 0 0 1 19.5 17 A 2.4999998 2.4999998 0 0 1 17 14.5 A 2.4999998 2.4999998 0 0 1 19.5 12 z "
       style="opacity:1;fill:#ffffff;fill-opacity:1;stroke:none;stroke-width:4;stroke-linecap:round;stroke-linejoin:round;stroke-miterlimit:4;stroke-dasharray:none;stroke-opacity:1" />
    <circle
       r="1.5"
       cy="14.5"
       cx="19.5"
       id="path4167"
       style="opacity:1;fill:#ffffff;fill-opacity:1;stroke:none;stroke-width:4;stroke-linecap:round;stroke-linejoin:round;stroke-miterlimit:4;stroke-dasharray:none;stroke-opacity:1" />
  </g>
  <path
     style="fill:#ffffff;fill-opacity:1;opacity:0.1"
     d="M 16 2 C 8.244 2 2 8.244 2 16 C 2 16.168842 2.0195214 16.33264 2.0253906 16.5 C 2.2891326 8.9794325 8.4128418 3 16 3 C 23.587158 3 29.710867 8.9794325 29.974609 16.5 C 29.980479 16.33264 30 16.168842 30 16 C 30 8.244 23.756 2 16 2 z "
     id="rect4174" />
  <path
     style="fill:#000000;fill-opacity:1;opacity:0.3"
     d="M 2.0253906 15.5 C 2.0195214 15.66736 2 15.831158 2 16 C 2 23.756 8.244 30 16 30 C 23.756 30 30 23.756 30 16 C 30 15.831158 29.980479 15.66736 29.974609 15.5 C 29.710867 23.020568 23.587158 29 16 29 C 8.4128418 29 2.2891326 23.020568 2.0253906 15.5 z "
     id="rect4179" />
</svg>

<?xml version="1.0" encoding="UTF-8" standalone="no"?>
<svg id="svg2817" xmlns:rdf="http://www.w3.org/1999/02/22-rdf-syntax-ns#" xmlns="http://www.w3.org/2000/svg" height="32" width="32" version="1.0" xmlns:cc="http://creativecommons.org/ns#" xmlns:dc="http://purl.org/dc/elements/1.1/">
 <metadata id="metadata57">
  <rdf:RDF>
   <cc:Work rdf:about="">
    <dc:format>image/svg+xml</dc:format>
    <dc:type rdf:resource="http://purl.org/dc/dcmitype/StillImage"/>
    <dc:title/>
   </cc:Work>
  </rdf:RDF>
 </metadata>
 <g id="layer7" transform="translate(-52.273,-18.186)" display="none">
  <rect id="rect4169" rx="9" ry="9" height="44" width="44" y="2" x="2" display="inline" fill="#abe1ad"/>
 </g>
 <rect id="rect4203" ry="14" rx="14" transform="matrix(0,-1,-1,0,0,0)" height="28" width="28" y="-30" x="-30" fill="#4d4d4d"/>
 <path id="path4211" opacity=".2" d="m19 8a8 8 0 0 0 -8 8 8 8 0 0 0 0.006 0.156c-0.002 0.049-0.012 0.096-0.012 0.145 0.002 0.126 0.004 0.253 0.012 0.379 0 0.025-0.002 0.049-0.002 0.074v1.492l-0.01 0.555-1.826 2.881c-0.4203 0.801-0.0229 1.298 0.879 1.31l0.957 0.014v0.002 1.131 1.117c0 0.941 0.879 1.73 1.824 1.73l2.172 0.028v2.935c0.332 0.023 0.662 0.051 1 0.051 2.987 0 5.745-0.933 8.014-2.516v-4.884c0-0.13-0.007-0.238-0.01-0.36a8 8 0 0 0 2.996 -6.24 8 8 0 0 0 -8 -8z"/>
 <path id="path4171" fill="#6084ff" d="m19 7a8 8 0 0 0 -8 8 8 8 0 0 0 0.006 0.156c-0.002 0.049-0.012 0.096-0.012 0.145 0.002 0.126 0.004 0.253 0.012 0.379 0 0.025-0.002 0.049-0.002 0.074v1.492l-0.01 0.555-1.826 2.881c-0.4203 0.801-0.0229 1.298 0.879 1.31l0.957 0.014v0.002 1.131 1.117c0 0.941 0.879 1.73 1.824 1.73l2.172 0.028v3.935c0.332 0.023 0.662 0.051 1 0.051 2.987 0 5.745-0.933 8.014-2.516v-5.884c0-0.13-0.008-0.238-0.01-0.36a8 8 0 0 0 2.996 -6.24 8 8 0 0 0 -8 -8z"/>
 <g id="g4202" opacity=".2" transform="translate(0,1)">
  <path id="path4204" opacity="1" d="m19.5 10a4.5 4.5 0 0 0 -4.5 4.5 4.5 4.5 0 0 0 4.5 4.5 4.5 4.5 0 0 0 4.5 -4.5 4.5 4.5 0 0 0 -4.5 -4.5zm0 2a2.5 2.5 0 0 1 2.5 2.5 2.5 2.5 0 0 1 -2.5 2.5 2.5 2.5 0 0 1 -2.5 -2.5 2.5 2.5 0 0 1 2.5 -2.5z"/>
  <circle id="circle4206" opacity="1" cy="14.5" cx="19.5" r="1.5"/>
 </g>
 <g id="g4198" fill="#fff">
  <path id="path4195" d="m19.5 10a4.5 4.5 0 0 0 -4.5 4.5 4.5 4.5 0 0 0 4.5 4.5 4.5 4.5 0 0 0 4.5 -4.5 4.5 4.5 0 0 0 -4.5 -4.5zm0 2a2.5 2.5 0 0 1 2.5 2.5 2.5 2.5 0 0 1 -2.5 2.5 2.5 2.5 0 0 1 -2.5 -2.5 2.5 2.5 0 0 1 2.5 -2.5z"/>
  <circle id="path4167" cx="19.5" cy="14.5" r="1.5"/>
 </g>
 <path id="rect4174" opacity=".1" d="m16 2c-7.756 0-14 6.244-14 14 0 0.169 0.0195 0.333 0.0254 0.5 0.2637-7.5206 6.3874-13.5 13.975-13.5 7.587 0 13.711 5.9794 13.975 13.5 0.005-0.167 0.025-0.331 0.025-0.5 0-7.756-6.244-14-14-14z" fill="#fff"/>
 <path id="rect4179" opacity=".2" d="m2.0254 16.5c-0.0059 0.167-0.0254 0.331-0.0254 0.5 0 7.756 6.244 14 14 14s14-6.244 14-14c0-0.16884-0.01952-0.33264-0.02539-0.5-0.264 7.521-6.388 13.5-13.975 13.5-7.5872 0-13.711-5.979-13.975-13.5z"/>
</svg>
